X:485
T:
R:vals
S:Efter »Florsen» i Burs.
O:Gotland, Burs
M:3/4
L:1/8
K:G
G2 B2 d2|b2 a2 g2|e2 edef|e4 AG|F2 A2 c2|e2 d2 c2|B2 BABc|B4 BA|
G2 B2 d2|b2 a2 g2|f2 e2 f2|g4 g2|gecece|e2 d2 FA|A2G2 G2|G4 z2::
d3 e d2|d3 e d2|d2 c2 BA|B4 G2|B4 G2|e4 d2|g4 g2|gfedcB|d3 e d2|
d3 e d2|d2 c2 BA|B4 G2|c2 cBcd|e2 d2 FA|A2 G2 G2|G4 z2:|

